icons/src/info.svg

<?xml version="1.0" encoding="UTF-8"?>
<!--Generator: Apple Native CoreSVG 341-->
<!DOCTYPE svg
PUBLIC "-//W3C//DTD SVG 1.1//EN"
       "http://www.w3.org/Graphics/SVG/1.1/DTD/svg11.dtd">
<svg version="1.1" xmlns="http://www.w3.org/2000/svg" xmlns:xlink="http://www.w3.org/1999/xlink" viewBox="0 0 9.74609 20.127">
 <g>
  <rect height="20.127" opacity="0" width="9.74609" x="0" y="0"/>
  <path d="M0.146484 18.0664C0.146484 18.4961 0.517578 18.8477 0.996094 18.8477L8.89648 18.8477C9.36523 18.8477 9.74609 18.4961 9.74609 18.0664C9.74609 17.6367 9.36523 17.3047 8.89648 17.3047L6.14258 17.3047L6.14258 7.5293C6.14258 7.04102 5.76172 6.65039 5.29297 6.65039L1.35742 6.65039C0.869141 6.65039 0.488281 6.98242 0.488281 7.40234C0.488281 7.85156 0.869141 8.19336 1.35742 8.19336L4.32617 8.19336L4.32617 17.3047L0.996094 17.3047C0.517578 17.3047 0.146484 17.6367 0.146484 18.0664ZM4.78516 3.11523C5.64453 3.11523 6.33789 2.42188 6.33789 1.55273C6.33789 0.693359 5.64453 0 4.78516 0C3.92578 0 3.23242 0.693359 3.23242 1.55273C3.23242 2.42188 3.92578 3.11523 4.78516 3.11523Z" fill="white"/>
 </g>
</svg>

<!--Generator: Apple Native CoreSVG 341-->
<!DOCTYPE svg  PUBLIC '-//W3C//DTD SVG 1.1//EN'  'http://www.w3.org/Graphics/SVG/1.1/DTD/svg11.dtd'>
<svg version="1.1" viewBox="0 0 9.7461 20.127" xmlns="http://www.w3.org/2000/svg">
 <rect width="9.7461" height="20.127" opacity="0"/>
 <path d="m0.14648 18.066c0 0.4297 0.37109 0.7813 0.84961 0.7813h7.9004c0.46875 0 0.84961-0.3516 0.84961-0.7813s-0.38086-0.7617-0.84961-0.7617h-2.7539v-9.7754c0-0.48828-0.38086-0.87891-0.84961-0.87891h-3.9356c-0.48828 0-0.86914 0.33203-0.86914 0.75195 0 0.44922 0.38086 0.79102 0.86914 0.79102h2.9688v9.1113h-3.3301c-0.47852 0-0.84961 0.332-0.84961 0.7617zm4.6387-14.951c0.85937 0 1.5527-0.69335 1.5527-1.5625 0-0.85937-0.69336-1.5527-1.5527-1.5527-0.85938 0-1.5527 0.69336-1.5527 1.5527 0 0.86915 0.69336 1.5625 1.5527 1.5625z" fill="#fff"/>
</svg>
